Adwaita++/emotes/16/face-crying.svg

<svg height="16" width="16" xmlns="http://www.w3.org/2000/svg">
  <path d="m8 1c-3.878 0-7 3.122-7 7s3.122 7 7 7 7-3.122 7-7-3.122-7-7-7z" fill="#ffa348"/>
  <path d="m5.1601249 6.6866308c-.4208971-.417826.0740126-.6797407.4949093-1.0975663.4208969-.4178261.6083963-.8333415 1.0292933-.4155154.4208967.4178259.4208967 1.0952557 0 1.5130817-.420897.4178256-1.1033057.4178256-1.5242026 0z" fill="#5e5c64"/>
  <path d="m10.839875 6.6866308c.420897-.417826-.074013-.6797406-.494909-1.0975662-.4208978-.4178261-.6083968-.8333414-1.0292935-.4155153-.4208966.4178258-.4208966 1.0952555 0 1.5130815.4208967.4178256 1.1033055.4178256 1.5242025 0z" fill="#5e5c64"/>
  <path d="m11 10c-.563437 0-1-.4516395-1-.8401641 0-.2696718.145854-.5795085.347652-1.0090164.02897-.062295.05995-.1270491.0909-.1942614.158851-.3434436.38962-.713115.54946-.9565581.140859.2393439.351648.6016395.54945.9647535.358641.6606564.462538.9286896.462538 1.1950824 0 .3885246-.436563.8401641-1 .8401641z" fill="#3584e4"/>
  <path d="m5.05 11.69618s.85-1.199706 2.95-1.199706 2.95 1.199706 2.95 1.199706" fill="none" stroke="#5e5c64" stroke-linecap="round" stroke-linejoin="round"/>
</svg>

<svg xmlns="http://www.w3.org/2000/svg" width="16" height="16" version="1">
 <path d="M 8,1 C 4.122,1 1,4.122 1,8 c 0,3.878 3.122,7 7,7 3.878,0 7,-3.122 7,-7 C 15,4.122 11.878,1 8,1 Z" style="fill:#ffa348"/>
 <path d="M 5.1601249,6.6866308 C 4.7392278,6.2688048 5.2341375,6.0068901 5.6550342,5.5890645 6.0759311,5.1712384 6.2634305,4.755723 6.6843275,5.1735491 c 0.4208967,0.4178259 0.4208967,1.0952557 0,1.5130817 -0.420897,0.4178256 -1.1033057,0.4178256 -1.5242026,0 z" style="fill:#5e5c64"/>
 <path d="M 10.839875,6.6866308 C 11.260772,6.2688048 10.765862,6.0068902 10.344966,5.5890646 9.9240682,5.1712385 9.7365692,4.7557232 9.3156725,5.1735493 c -0.4208966,0.4178258 -0.4208966,1.0952555 0,1.5130815 0.4208967,0.4178256 1.1033055,0.4178256 1.5242025,0 z" style="fill:#5e5c64"/>
 <path d="m 11,10 c -0.563437,0 -1,-0.4516395 -1,-0.8401641 0,-0.2696718 0.145854,-0.5795085 0.347652,-1.0090164 0.02897,-0.062295 0.05995,-0.1270491 0.0909,-0.1942614 C 10.597403,7.6131145 10.828172,7.2434431 10.988012,7 11.128871,7.2393439 11.33966,7.6016395 11.537462,7.9647535 11.896103,8.6254099 12,8.8934431 12,9.1598359 12,9.5483605 11.563437,10 11,10 Z" style="fill:#3584e4"/>
 <path d="m 5.05,11.69618 c 0,0 0.85,-1.199706 2.95,-1.199706 2.1,0 2.95,1.199706 2.95,1.199706 v 0 0" style="fill:none;stroke:#5e5c64;stroke-linecap:round;stroke-linejoin:round"/>
</svg>
